svg/azure-acl.svg

<?xml version="1.0" encoding="UTF-8"?>
<svg xmlns="http://www.w3.org/2000/svg" xmlns:xlink="http://www.w3.org/1999/xlink" width="26.409" height="32" viewBox="0 0 26.409 32">
<path fill-rule="nonzero" fill="rgb(0%, 47.058824%, 83.137255%)" fill-opacity="1" d="M 25.878906 15.023438 C 25.878906 23.324219 15.84375 30.011719 13.667969 31.367188 C 13.414062 31.519531 13.097656 31.519531 12.84375 31.367188 C 10.667969 30.011719 0.632812 23.324219 0.632812 15.023438 L 0.632812 5.042969 C 0.632812 4.613281 0.976562 4.261719 1.40625 4.253906 C 9.210938 4.046875 7.410156 0.617188 13.257812 0.617188 C 19.105469 0.617188 17.304688 4.046875 25.105469 4.253906 C 25.535156 4.265625 25.878906 4.617188 25.878906 5.042969 Z M 25.878906 15.023438 "/>
<path fill-rule="nonzero" fill="rgb(41.960784%, 72.54902%, 94.901961%)" fill-opacity="1" d="M 24.832031 15.109375 C 24.832031 22.722656 15.640625 28.828125 13.632812 30.097656 C 13.398438 30.234375 13.113281 30.234375 12.878906 30.097656 C 10.871094 28.863281 1.679688 22.722656 1.679688 15.109375 L 1.679688 5.949219 C 1.679688 5.558594 1.992188 5.238281 2.382812 5.230469 C 9.535156 5.042969 7.886719 1.902344 13.257812 1.902344 C 18.625 1.902344 16.976562 5.042969 24.128906 5.230469 C 24.519531 5.238281 24.832031 5.558594 24.832031 5.949219 Z M 24.832031 15.109375 "/>
<path fill-rule="nonzero" fill="rgb(31.372549%, 90.196078%, 100%)" fill-opacity="1" d="M 2.382812 5.230469 C 9.535156 5.042969 7.886719 1.902344 13.257812 1.902344 L 13.257812 16.050781 L 1.730469 16.050781 C 1.714844 15.742188 1.714844 15.433594 1.730469 15.125 L 1.730469 5.96875 C 1.730469 5.59375 2.011719 5.273438 2.382812 5.230469 M 24.78125 16.050781 L 13.257812 16.050781 L 13.257812 30.199219 C 13.367188 30.191406 13.472656 30.15625 13.566406 30.097656 C 15.554688 28.914062 24.09375 23.21875 24.78125 16.050781 M 24.78125 16.050781 "/>
</svg>

<svg role="img" viewBox="0 0 26.409 32" height="32" width="26.409" xmlns="http://www.w3.org/2000/svg"><path d="M25.879 15.023c0 8.301-10.035 14.989-12.211 16.344a.8.8 0 0 1-.824 0C10.668 30.012.633 23.324.633 15.023v-9.98a.79.79 0 0 1 .773-.79C9.211 4.048 7.41.618 13.258.618c5.847 0 4.047 3.43 11.847 3.637.43.012.774.363.774.789Zm0 0" fill="rgb(0%, 47.058824%, 83.137255%)"/><path d="M24.832 15.11c0 7.613-9.191 13.718-11.2 14.988a.744.744 0 0 1-.753 0c-2.008-1.235-11.2-7.375-11.2-14.989V5.95c0-.39.313-.71.704-.719 7.152-.187 5.504-3.328 10.875-3.328 5.367 0 3.719 3.141 10.87 3.328a.72.72 0 0 1 .704.72Zm0 0" fill="rgb(41.960784%, 72.54902%, 94.901961%)"/><path d="M13.258 16.05V1.903c5.367 0 3.719 3.141 10.87 3.328a.74.74 0 0 1 .704.739v9.156c.016.309.016.617 0 .926Zm0 0H1.73c.688 7.169 9.227 12.864 11.149 14.048.094.058.2.093.309.101h.07Zm0 0" fill="url(#387__386__244__243__azure-acl-lp-0)"/><path d="M2.383 5.23c7.152-.187 5.504-3.328 10.875-3.328v14.149H1.73a9.148 9.148 0 0 1 0-.926V5.969c0-.375.282-.696.653-.739M24.78 16.05H13.258V30.2a.672.672 0 0 0 .308-.102c1.989-1.184 10.528-6.88 11.215-14.047m0 0" fill="rgb(31.372549%, 90.196078%, 100%)"/></svg>
